material/.icons/material/sigma-lower.svg

<svg xmlns="http://www.w3.org/2000/svg" viewBox="0 0 24 24"><path d="M19 12c0 4.42-3.36 8-7.5 8C7.36 20 4 16.42 4 12s3.36-8 7.5-8H20v2h-3.54A8.291 8.291 0 0119 12m-7.5-6C8.46 6 6 8.69 6 12s2.46 6 5.5 6 5.5-2.69 5.5-6-2.46-6-5.5-6z"/></svg>

<?xml version="1.0" encoding="UTF-8"?><!DOCTYPE svg PUBLIC "-//W3C//DTD SVG 1.1//EN" "http://www.w3.org/Graphics/SVG/1.1/DTD/svg11.dtd"><svg xmlns="http://www.w3.org/2000/svg" xmlns:xlink="http://www.w3.org/1999/xlink" version="1.1" id="mdi-sigma-lower" width="24" height="24" viewBox="0 0 24 24"><path d="M19,12C19,16.42 15.64,20 11.5,20C7.36,20 4,16.42 4,12C4,7.58 7.36,4 11.5,4H20V6H16.46C18,7.47 19,9.61 19,12M11.5,6C8.46,6 6,8.69 6,12C6,15.31 8.46,18 11.5,18C14.54,18 17,15.31 17,12C17,8.69 14.54,6 11.5,6Z" /></svg>
